src/next/cmd/sc_basicshapes.block-arc.svg

<svg height="16" viewBox="0 0 4.2333333 4.2333335" width="16" xmlns="http://www.w3.org/2000/svg" xmlns:xlink="http://www.w3.org/1999/xlink"><linearGradient id="a" gradientUnits="userSpaceOnUse" x1=".077499" x2="15.920548" y1="8" y2="8"><stop offset="0" stop-color="#7c9fcf"/><stop offset=".5" stop-color="#7c9ece"/><stop offset="1" stop-color="#7b9dcf"/></linearGradient><linearGradient id="b" gradientUnits="userSpaceOnUse" x1="9" x2="9" y1="14" y2="5"><stop offset="0" stop-color="#fff"/><stop offset=".50643778" stop-color="#fff"/><stop offset=".82296139" stop-color="#f1f1f1"/><stop offset=".90625" stop-color="#eaeaea"/><stop offset="1" stop-color="#dfdfdf"/></linearGradient><path d="m8 4c-1.9020594.0017196-3.7971159.7092373-5.234375 1.9550781s-2.40601228 3.0197921-2.67773437 4.9023439c-.08678433.602956.38106494 1.142782.99023437 1.142578h2.0234375.8984375a4.0000002 4.0000002 0 0 1 4-4 4.0000002 4.0000002 0 0 1 4 4h.894531 2.025391c.609169.000204 1.077018-.539622.990234-1.142578-.271668-1.882184-1.24093-3.6565458-2.677734-4.9023439-1.436804-1.245798-3.3287816-1.9528282-5.2304689-1.9550781z" fill="url(#a)" transform="matrix(.2645833375 0 0 .2645833375 -.000000125 0)"/><path d="m8 5a6.9999999 6.9999999 0 0 0 -6.921875 6h2.0234375a4.9999998 4.9999998 0 0 1 4.8984375-4 4.9999998 4.9999998 0 0 1 4.894531 4h2.025391a6.9999999 6.9999999 0 0 0 -6.919922-6z" fill="url(#b)" transform="matrix(.2645833375 0 0 .2645833375 -.000000125 0)"/></svg>

<?xml version="1.0" encoding="UTF-8" standalone="no"?>
<!-- Created with Inkscape (http://www.inkscape.org/) -->

<svg
   xmlns:dc="http://purl.org/dc/elements/1.1/"
   xmlns:cc="http://creativecommons.org/ns#"
   xmlns:rdf="http://www.w3.org/1999/02/22-rdf-syntax-ns#"
   xmlns:svg="http://www.w3.org/2000/svg"
   xmlns="http://www.w3.org/2000/svg"
   xmlns:xlink="http://www.w3.org/1999/xlink"
   xmlns:sodipodi="http://sodipodi.sourceforge.net/DTD/sodipodi-0.dtd"
   xmlns:inkscape="http://www.inkscape.org/namespaces/inkscape"
   width="16"
   height="16"
   viewBox="0 0 4.2333333 4.2333335"
   version="1.1"
   id="svg8"
   inkscape:version="0.92.4 (unknown)"
   sodipodi:docname="sc_basicshapes.block-arc.svg"
   inkscape:export-filename="/home/rizmut/Dokumen/Rizmut/Github/libreoffice-style-karasa-jaga/build/next/cmd/sc_basicshapes.block-arc.png"
   inkscape:export-xdpi="96"
   inkscape:export-ydpi="96">
  <defs
     id="defs2">
    <linearGradient
       id="linearGradient7422">
      <stop
         style="stop-color:#7c9fcf;stop-opacity:1"
         offset="0"
         id="stop7424" />
      <stop
         id="stop5348"
         offset="0.5"
         style="stop-color:#7c9ece;stop-opacity:1" />
      <stop
         id="stop7426"
         offset="1"
         style="stop-color:#7b9dcf;stop-opacity:1" />
    </linearGradient>
    <linearGradient
       id="linearGradient3369">
      <stop
         id="stop3372"
         offset="0"
         style="stop-color:#ffffff;stop-opacity:1;" />
      <stop
         style="stop-color:#ffffff;stop-opacity:1;"
         offset="0.50643778"
         id="stop3374" />
      <stop
         style="stop-color:#f1f1f1;stop-opacity:1;"
         offset="0.82296139"
         id="stop3376" />
      <stop
         id="stop3378"
         offset="0.90625"
         style="stop-color:#eaeaea;stop-opacity:1;" />
      <stop
         id="stop3384"
         offset="1"
         style="stop-color:#dfdfdf;stop-opacity:1;" />
    </linearGradient>
    <linearGradient
       inkscape:collect="always"
       xlink:href="#linearGradient7422"
       id="linearGradient875"
       x1="0.077499054"
       y1="8"
       x2="15.920548"
       y2="8"
       gradientUnits="userSpaceOnUse" />
    <linearGradient
       inkscape:collect="always"
       xlink:href="#linearGradient3369"
       id="linearGradient883"
       x1="9"
       y1="14"
       x2="9"
       y2="4.9999995"
       gradientUnits="userSpaceOnUse" />
  </defs>
  <sodipodi:namedview
     id="base"
     pagecolor="#ffffff"
     bordercolor="#666666"
     borderopacity="1.0"
     inkscape:pageopacity="0.0"
     inkscape:pageshadow="2"
     inkscape:zoom="22.4"
     inkscape:cx="14.794357"
     inkscape:cy="6.5038221"
     inkscape:document-units="mm"
     inkscape:current-layer="g856"
     showgrid="true"
     units="px"
     inkscape:window-width="1366"
     inkscape:window-height="706"
     inkscape:window-x="0"
     inkscape:window-y="0"
     inkscape:window-maximized="1">
    <inkscape:grid
       type="xygrid"
       id="grid1421"
       spacingx="0.13229167"
       spacingy="0.13229167"
       empspacing="2" />
  </sodipodi:namedview>
  <metadata
     id="metadata5">
    <rdf:RDF>
      <cc:Work
         rdf:about="">
        <dc:format>image/svg+xml</dc:format>
        <dc:type
           rdf:resource="http://purl.org/dc/dcmitype/StillImage" />
        <dc:title></dc:title>
      </cc:Work>
    </rdf:RDF>
  </metadata>
  <g
     inkscape:label="Layer 1"
     inkscape:groupmode="layer"
     id="layer1"
     transform="translate(0,-292.76665)">
    <g
       id="g856"
       transform="matrix(0.125,0,0,0.125,1.11262e-7,259.87498)">
      <path
         style="opacity:1;fill:url(#linearGradient875);fill-opacity:1;stroke:none;stroke-width:0.12499999"
         d="M 8 4 C 6.0979406 4.0017196 4.2028841 4.7092373 2.765625 5.9550781 C 1.3283659 7.2009189 0.35961272 8.9748702 0.087890625 10.857422 C 0.0011063036 11.460378 0.46895557 12.000204 1.078125 12 L 3.1015625 12 L 4 12 A 4.0000002 4.0000002 0 0 1 8 8 A 4.0000002 4.0000002 0 0 1 12 12 L 12.894531 12 L 14.919922 12 C 15.529091 12.000204 15.99694 11.460378 15.910156 10.857422 C 15.638488 8.975238 14.669226 7.2008762 13.232422 5.9550781 C 11.795618 4.7092801 9.9036404 4.0022499 8.0019531 4 L 8 4 z "
         transform="matrix(2.1166667,0,0,2.1166667,-8.90096e-7,263.13336)"
         id="path861" />
      <path
         style="opacity:1;fill:url(#linearGradient883);fill-opacity:1;stroke:none;stroke-width:0.12499999"
         d="M 8 5 A 6.9999999 6.9999999 0 0 0 1.078125 11 L 3.1015625 11 A 4.9999998 4.9999998 0 0 1 8 7 A 4.9999998 4.9999998 0 0 1 12.894531 11 L 14.919922 11 A 6.9999999 6.9999999 0 0 0 8 5 z "
         transform="matrix(2.1166667,0,0,2.1166667,-8.90096e-7,263.13336)"
         id="path844" />
    </g>
  </g>
</svg>
